X: 1264
T: An Droichead Bheag
R: hornpipe
M: 4/4
K: Dmajor
ag|:f2df e2ce|d2cd BAFA|D2FA dcde|fgfd e2ag|
f2 df e2 ce|d2cd BAFA|D2FA dcde|1 fgef d2ag:|2 fgef d3c||
B3 c dBB2|fgfg fB B2|A2FA dcde|fgfd e3d|
B3 c dBB2|fgfg fB B2|A2FA dcde|1 fgef d3c:|2 fgef d2ef||
g2 fg eA A2|f2 ef dA A2|FDFA dcde|fgfd e2ef|
g2 fg eA A2|f2 ef dA A2|FDFA dcde|1 fgef d2 ef:|2 fgef d2ag||

